X:1
T:Title
%%score ( 1 2 ) ( 3 4 )
L:1/8
Q:1/4=90
M:4/4
K:Bb
V:1 treble nm="Strings 1, Treble"
V:2 treble 
V:3 bass nm="Strings 1, Bass"
V:4 bass 
V:1
 z4 z2 [B,D][CE] | [DF]2 [DF]2 [EG]2 [DF]2 | [Fd]2 [DB]4 [DF]2 | [EG]2 [EG][FA] [GB]2 [EG]2 | %4
w: 1.~Fare *|well,~ dear~ friends,~ I~|bid~ you~ A~|lov ing,~ * last~ fare|
 [DF]6 [B,D][CE] | [DF]2 [DF]2 [EG]2 [DF]2 | [Fd]2 [FB]4 [EG]2 | [DF]2 AB [Ec]2 [EA]2 | %8
w: well;~ I~ *|hear~ my~ Sav ior~|call ing,~ I~|soon~ with~ * Him~ shall~|
 [DB]6 [DB][FA] | [EG]2 [EG][FA] [GB]2 [EG]2 | [EG]2 [DF]4 [DF]2 | [DF]2 [DF]2 [FB]2 [Fd]2 | %12
w: dwell.~ Weep~ *|not~ at~ * my~ de|par ture,~ For~|on~ that~ shore~ I~|
 [Fc]6 de | [Ff]2 [Ff]2 [Fd]2 [FB]2 | [Gc]2 [GB]4 [EG]2 | [DF]2 AB [Ec]2 [EA]2 | [DB]6 z2 |] %17
w: see~ The~ *|blest~ of~ ag es~|wait ing~ To~|chant~ a~ * song~ for~|me.~|
V:2
 x8 | x8 | x8 | x8 | x8 | x8 | x8 | z2 D2 z4 | x8 | x8 | x8 | x8 | z4 z2 F2 | x8 | x8 | z2 D2 z4 | %16
 x8 |] %17
V:3
 z4 z2 [B,,F,]2 | [B,,B,]2 [B,,B,]2 [B,,B,]2 [B,,B,]2 | [B,,B,]2 [B,,F,]4 [B,,B,]2 | %3
 [E,B,]2 [E,B,]2 [E,B,]2 [E,B,]2 | [B,,B,]6 [B,,F,]2 | [B,,B,]2 [B,,B,]2 [B,,B,]2 [B,,B,]2 | %6
 [B,,B,]2 [D,B,]4 [E,B,]2 | [F,B,]2 [F,B,]2 [F,A,]2 [F,,F,C]2 | z4 z2 B,2 | %9
 [E,B,]2 [E,B,]2 [E,B,]2 [E,B,]2 | [B,,B,]2 [B,,B,]4 [B,,B,]2 | %11
 [B,,B,]2 [B,,B,]2 [D,B,]2 [B,,B,]2 | [F,A,]6 B,C | [B,D]2 [B,D]2 B,2 [D,B,]2 | %14
 [E,B,]2 [E,B,]4 [E,B,]2 | [F,B,]2 [F,B,]2 [F,,F,A,]2 [F,,F,]2 | [B,,F,]6 z2 |] %17
V:4
 x8 | x8 | x8 | x8 | x8 | x8 | x8 | x8 | [B,,B,]6 B,,D, | x8 | x8 | x8 | x8 | x8 | x8 | x8 | x8 |] %17

